X: 29
M: 6/4
L: 1/4
K: Gm
g |\
g2d d2g | fdB B2e |\
ecA A2d | dBG G2g |\
g2d d2g | fdB B2e |\
ecA Bd^F | G3- G2 :|
|: A |\
(G/A/B)G A2D | G/A/Bc d2g |\
fdB AG^F | G3- G2 :|

